X:243
T:Polka piquee
R:polka
C:trad.
A:Massif Central
O:France
Z:S. Piron
M:2/2
L:1/4
Q:1/4=200
K:G
d2c2|A/2c/2A/2c/2 BG|d2c2|A/2B/2A/2F/2 G2:|
|DGBA|G/2A/2G/2F/2 ED|DGB A/2B/2|c/2A/2G/2A/2 BG|DF A>B|AFD2|GGA>B|AFG2||
